X:1
T:Bold Archie
M:6/8
L:1/8
K:G
 G,3 D2 D| CB,A, G,3| G2 GE-F G| A2 A D2 D|D-E F GFE| D2 D DEB,| D2 D DED|\
C-B, A, G,3|
